Hatter-kde/actions/24/prevfuzzy.svg

<svg xmlns="http://www.w3.org/2000/svg" viewBox="0 0 24 24">
  <defs id="defs3051">
    <style type="text/css" id="current-color-scheme">
      .ColorScheme-Text {
        color:#363636;
      }
      </style>
  </defs><g transform="translate(1,1)">
 <path 
     style="fill:currentColor;fill-opacity:1;stroke:none" 
     d="M 4 3 L 4 17 L 3 17 L 3 18 L 4 18 L 4 19 L 5 19 L 5 18 L 12 18 L 12 17 L 5 17 L 5 3 L 4 3 z M 17 3 L 17 12 L 18 12 L 18 3 L 17 3 z M 10.5 3.5 C 9.52778 3.5 8.6199986 3.8409388 7.9804688 4.4804688 C 7.3409388 5.1199988 7 6.02778 7 7 L 9 7 C 9 6.47222 9.1590714 6.1300012 9.3945312 5.8945312 C 9.6300014 5.6590613 9.97222 5.5 10.5 5.5 C 11.02778 5.5 11.369999 5.6590613 11.605469 5.8945312 C 11.840939 6.1300012 12 6.47222 12 7 C 12 7.45834 11.909604 7.6533219 11.789062 7.8261719 C 11.267793 8.3520819 10.637349 8.8017219 10.130859 9.2324219 C 9.5591898 9.6616519 9 10.22438 9 11 L 9 11.5 L 11 11.5 L 11 11 C 11.71082 10.27234 12.770257 9.6378431 13.429688 8.9707031 C 13.777848 8.4716731 14 7.79167 14 7 C 14 6.02778 13.659071 5.1199988 13.019531 4.4804688 C 12.380001 3.8409387 11.47222 3.5 10.5 3.5 z M 16.5 12 L 13.207031 15.292969 L 13 15.5 L 13.207031 15.707031 L 16.5 19 L 17.207031 18.292969 L 14.914062 16 L 19.207031 16 L 19.207031 15 L 14.914062 15 L 17.207031 12.707031 L 16.5 12 z M 9 13.5 L 9 15.5 L 11 15.5 L 11 13.5 L 9 13.5 z "
	 class="ColorScheme-Text"
     />
</g></svg>

<?xml version="1.0" encoding="UTF-8"?>
<svg viewBox="0 0 24 24" xmlns="http://www.w3.org/2000/svg">
 <defs id="defs3051">
  <style id="current-color-scheme" type="text/css">.ColorScheme-Text {
        color:#363636;
      }</style>
 </defs>
 <g transform="translate(1,1)">
  <path class="ColorScheme-Text" d="m4 3v14h-1v1h1v1h1v-1h7v-1h-7v-14h-1zm13 0v9h1v-9h-1zm-6.5 0.5c-0.97222 0-1.88 0.34094-2.5195 0.98047-0.63953 0.63953-0.98047 1.5473-0.98047 2.5195h2c0-0.52778 0.15907-0.87 0.39453-1.1055 0.23547-0.23547 0.57769-0.39453 1.1055-0.39453s0.87 0.15906 1.1055 0.39453c0.23547 0.23547 0.39453 0.57769 0.39453 1.1055 0 0.45834-0.090396 0.65332-0.21094 0.82617-0.52127 0.52591-1.1517 0.97555-1.6582 1.4062-0.57167 0.42923-1.1309 0.99196-1.1309 1.7676v0.5h2v-0.5c0.71082-0.72766 1.7703-1.3622 2.4297-2.0293 0.34816-0.49903 0.57031-1.179 0.57031-1.9707 0-0.97222-0.34093-1.88-0.98047-2.5195-0.63953-0.63953-1.5473-0.98047-2.5195-0.98047zm6 8.5-3.5 3.5 3.5 3.5 0.70703-0.70703-2.293-2.293h4.293v-1h-4.293l2.293-2.293-0.70703-0.70703zm-7.5 1.5v2h2v-2h-2z" fill="currentColor"/>
 </g>
</svg>
